X:7980
T:Jig,Untitled. TLY.056
M:6/8
L:1/8
S:Wm.Tildesley,Swinton,Lancs.1860s.
R:Jig
O:England.
A:Lancashire.
H:1860.
Z:vmp.Taz Tarry.
K:G
D| G2G B2B| AGA G3| B2B d2d| cBc B2 D|G2G B2B| AGA G3|!
 B2B d2d| cBc B2c| d2Bd2B| d2B d2d| e2cc2e| dec B2A| GAG B2A|!
G>AG B2A| G>AG d2c|BcA G3|G>AG B2A| G>AG B2A| GBc ded| cBA G2||
